assets/anyscale/original.svg

<svg viewBox="0 0 24 24" xmlns="http://www.w3.org/2000/svg"><path d="m17.583 12.344-2.977 5.156h5.994c.22 0 .424-.117.535-.308l2.799-4.848zm6.351-.688-2.799-4.848a.62.62 0 0 0 -.535-.308h-5.994l2.977 5.156h6.35zm-15.281-5.156h5.953l-2.997-5.191a.62.62 0 0 0 -.535-.309h-5.598zm-3.772-5.157-2.798 4.848a.62.62 0 0 0 0 .617l2.997 5.191 2.976-5.156zm3.176 15.812-2.976-5.155-2.998 5.192a.62.62 0 0 0 0 .617l2.798 4.848 3.175-5.5h.001zm-2.581 5.845h5.598c.22 0 .424-.117.535-.308l2.997-5.192h-5.953l-3.176 5.5z" fill="#0163fb"/></svg>

<svg xmlns="http://www.w3.org/2000/svg" viewBox="0 0 24 24"><path fill="#0163fb" d="M17.583 12.344 14.606 17.5H20.6c.22 0 .424-.117.535-.308l2.799-4.848zm6.351-.688-2.799-4.848A.62.62 0 0 0 20.6 6.5h-5.994l2.977 5.156h6.35zM8.653 6.5h5.953l-2.997-5.191A.62.62 0 0 0 11.074 1H5.476zM4.881 1.343 2.083 6.191a.62.62 0 0 0 0 .617l2.997 5.191 2.976-5.156zm3.176 15.812L5.081 12l-2.998 5.192a.62.62 0 0 0 0 .617l2.798 4.848 3.175-5.5h.001zM5.476 23h5.598c.22 0 .424-.117.535-.308l2.997-5.192H8.653z"/></svg>
